bernoullicharts/pow_x_4_5__bound.svg

<?xml version="1.0" encoding="utf-8" standalone="no"?>
<!DOCTYPE svg PUBLIC "-//W3C//DTD SVG 1.1//EN"
  "http://www.w3.org/Graphics/SVG/1.1/DTD/svg11.dtd">
<!-- Created with matplotlib (https://matplotlib.org/) -->
<svg height="345.6pt" version="1.1" viewBox="0 0 460.8 345.6" width="460.8pt" xmlns="http://www.w3.org/2000/svg" xmlns:xlink="http://www.w3.org/1999/xlink">
 <defs>
  <style type="text/css">
*{stroke-linecap:butt;stroke-linejoin:round;}
  </style>
 </defs>
 <g id="figure_1">
  <g id="patch_1">
   <path d="M 0 345.6 
L 460.8 345.6 
L 460.8 0 
L 0 0 
z
" style="fill:#ffffff;"/>
  </g>
  <g id="axes_1">
   <g id="patch_2">
    <path d="M 57.6 307.584 
L 414.72 307.584 
L 414.72 41.472 
L 57.6 41.472 
z
" style="fill:#ffffff;"/>
   </g>
   <g id="matplotlib.axis_1">
    <g id="xtick_1">
     <g id="line2d_1">
      <defs>
       <path d="M 0 0 
L 0 3.5 
" id="m9cd3843a28" style="stroke:#000000;stroke-width:0.8;"/>
      </defs>
      <g>
       <use style="stroke:#000000;stroke-width:0.8;" x="73.800255" xlink:href="#m9cd3843a28" y="307.584"/>
      </g>
     </g>
     <g id="text_1">
      <text style="font-family:DejaVu Sans;font-size:10px;font-style:normal;font-weight:normal;text-anchor:middle;" transform="rotate(-0, 73.800255, 322.182437)" x="73.800255" y="322.182437">0.0</text>
     </g>
    </g>
    <g id="xtick_2">
     <g id="line2d_2">
      <g>
       <use style="stroke:#000000;stroke-width:0.8;" x="138.744153" xlink:href="#m9cd3843a28" y="307.584"/>
      </g>
     </g>
     <g id="text_2">
      <text style="font-family:DejaVu Sans;font-size:10px;font-style:normal;font-weight:normal;text-anchor:middle;" transform="rotate(-0, 138.744153, 322.182437)" x="138.744153" y="322.182437">0.2</text>
     </g>
    </g>
    <g id="xtick_3">
     <g id="line2d_3">
      <g>
       <use style="stroke:#000000;stroke-width:0.8;" x="203.688051" xlink:href="#m9cd3843a28" y="307.584"/>
      </g>
     </g>
     <g id="text_3">
      <text style="font-family:DejaVu Sans;font-size:10px;font-style:normal;font-weight:normal;text-anchor:middle;" transform="rotate(-0, 203.688051, 322.182437)" x="203.688051" y="322.182437">0.4</text>
     </g>
    </g>
    <g id="xtick_4">
     <g id="line2d_4">
      <g>
       <use style="stroke:#000000;stroke-width:0.8;" x="268.631949" xlink:href="#m9cd3843a28" y="307.584"/>
      </g>
     </g>
     <g id="text_4">
      <text style="font-family:DejaVu Sans;font-size:10px;font-style:normal;font-weight:normal;text-anchor:middle;" transform="rotate(-0, 268.631949, 322.182437)" x="268.631949" y="322.182437">0.6</text>
     </g>
    </g>
    <g id="xtick_5">
     <g id="line2d_5">
      <g>
       <use style="stroke:#000000;stroke-width:0.8;" x="333.575847" xlink:href="#m9cd3843a28" y="307.584"/>
      </g>
     </g>
     <g id="text_5">
      <text style="font-family:DejaVu Sans;font-size:10px;font-style:normal;font-weight:normal;text-anchor:middle;" transform="rotate(-0, 333.575847, 322.182437)" x="333.575847" y="322.182437">0.8</text>
     </g>
    </g>
    <g id="xtick_6">
     <g id="line2d_6">
      <g>
       <use style="stroke:#000000;stroke-width:0.8;" x="398.519745" xlink:href="#m9cd3843a28" y="307.584"/>
      </g>
     </g>
     <g id="text_6">
      <text style="font-family:DejaVu Sans;font-size:10px;font-style:normal;font-weight:normal;text-anchor:middle;" transform="rotate(-0, 398.519745, 322.182437)" x="398.519745" y="322.182437">1.0</text>
     </g>
    </g>
    <g id="text_7">
     <text style="font-family:DejaVu Sans;font-size:10px;font-style:normal;font-weight:normal;text-anchor:middle;" transform="rotate(-0, 236.16, 335.860562)" x="236.16" y="335.860562">Input Coin's Heads Probability (λ)</text>
    </g>
   </g>
   <g id="matplotlib.axis_2">
    <g id="ytick_1">
     <g id="line2d_7">
      <defs>
       <path d="M 0 0 
L -3.5 0 
" id="m87f1dc8d5e" style="stroke:#000000;stroke-width:0.8;"/>
      </defs>
      <g>
       <use style="stroke:#000000;stroke-width:0.8;" x="57.6" xlink:href="#m87f1dc8d5e" y="283.344807"/>
      </g>
     </g>
     <g id="text_8">
      <text style="font-family:DejaVu Sans;font-size:10px;font-style:normal;font-weight:normal;text-anchor:end;" transform="rotate(-0, 50.6, 287.144025)" x="50.6" y="287.144025">1.0</text>
     </g>
    </g>
    <g id="ytick_2">
     <g id="line2d_8">
      <g>
       <use style="stroke:#000000;stroke-width:0.8;" x="57.6" xlink:href="#m87f1dc8d5e" y="252.985609"/>
      </g>
     </g>
     <g id="text_9">
      <text style="font-family:DejaVu Sans;font-size:10px;font-style:normal;font-weight:normal;text-anchor:end;" transform="rotate(-0, 50.6, 256.784828)" x="50.6" y="256.784828">1.5</text>
     </g>
    </g>
    <g id="ytick_3">
     <g id="line2d_9">
      <g>
       <use style="stroke:#000000;stroke-width:0.8;" x="57.6" xlink:href="#m87f1dc8d5e" y="222.626411"/>
      </g>
     </g>
     <g id="text_10">
      <text style="font-family:DejaVu Sans;font-size:10px;font-style:normal;font-weight:normal;text-anchor:end;" transform="rotate(-0, 50.6, 226.42563)" x="50.6" y="226.42563">2.0</text>
     </g>
    </g>
    <g id="ytick_4">
     <g id="line2d_10">
      <g>
       <use style="stroke:#000000;stroke-width:0.8;" x="57.6" xlink:href="#m87f1dc8d5e" y="192.267214"/>
      </g>
     </g>
     <g id="text_11">
      <text style="font-family:DejaVu Sans;font-size:10px;font-style:normal;font-weight:normal;text-anchor:end;" transform="rotate(-0, 50.6, 196.066432)" x="50.6" y="196.066432">2.5</text>
     </g>
    </g>
    <g id="ytick_5">
     <g id="line2d_11">
      <g>
       <use style="stroke:#000000;stroke-width:0.8;" x="57.6" xlink:href="#m87f1dc8d5e" y="161.908016"/>
      </g>
     </g>
     <g id="text_12">
      <text style="font-family:DejaVu Sans;font-size:10px;font-style:normal;font-weight:normal;text-anchor:end;" transform="rotate(-0, 50.6, 165.707235)" x="50.6" y="165.707235">3.0</text>
     </g>
    </g>
    <g id="ytick_6">
     <g id="line2d_12">
      <g>
       <use style="stroke:#000000;stroke-width:0.8;" x="57.6" xlink:href="#m87f1dc8d5e" y="131.548818"/>
      </g>
     </g>
     <g id="text_13">
      <text style="font-family:DejaVu Sans;font-size:10px;font-style:normal;font-weight:normal;text-anchor:end;" transform="rotate(-0, 50.6, 135.348037)" x="50.6" y="135.348037">3.5</text>
     </g>
    </g>
    <g id="ytick_7">
     <g id="line2d_13">
      <g>
       <use style="stroke:#000000;stroke-width:0.8;" x="57.6" xlink:href="#m87f1dc8d5e" y="101.189621"/>
      </g>
     </g>
     <g id="text_14">
      <text style="font-family:DejaVu Sans;font-size:10px;font-style:normal;font-weight:normal;text-anchor:end;" transform="rotate(-0, 50.6, 104.988839)" x="50.6" y="104.988839">4.0</text>
     </g>
    </g>
    <g id="ytick_8">
     <g id="line2d_14">
      <g>
       <use style="stroke:#000000;stroke-width:0.8;" x="57.6" xlink:href="#m87f1dc8d5e" y="70.830423"/>
      </g>
     </g>
     <g id="text_15">
      <text style="font-family:DejaVu Sans;font-size:10px;font-style:normal;font-weight:normal;text-anchor:end;" transform="rotate(-0, 50.6, 74.629642)" x="50.6" y="74.629642">4.5</text>
     </g>
    </g>
    <g id="text_16">
     <text style="font-family:DejaVu Sans;font-size:10px;font-style:normal;font-weight:normal;text-anchor:middle;" transform="rotate(-90, 28.617187, 174.528)" x="28.617187" y="174.528">Coin Flips Needed</text>
    </g>
   </g>
   <g id="line2d_15">
    <path clip-path="url(#p1ef5d8eb03)" d="M 73.832727 53.568 
L 77.112066 245.306583 
L 80.391405 257.214666 
L 83.670744 263.353876 
L 86.950083 267.35948 
L 90.229421 270.273831 
L 93.50876 272.533794 
L 96.788099 274.361586 
L 100.067438 275.884724 
L 103.346777 277.182719 
L 106.626116 278.308266 
L 109.905455 279.29796 
L 113.184793 280.178176 
L 116.464132 280.968504 
L 119.743471 281.683862 
L 123.02281 282.335852 
L 126.302149 282.933663 
L 129.581488 283.484685 
L 132.860826 283.994944 
L 136.140165 284.469411 
L 139.419504 284.912234 
L 142.698843 285.326903 
L 145.978182 285.716385 
L 149.257521 286.083216 
L 152.53686 286.429584 
L 155.816198 286.757385 
L 159.095537 287.068275 
L 162.374876 287.363707 
L 165.654215 287.644959 
L 168.933554 287.913167 
L 172.212893 288.169339 
L 175.492231 288.414376 
L 178.77157 288.649086 
L 182.050909 288.874195 
L 185.330248 289.09036 
L 188.609587 289.298173 
L 191.888926 289.498174 
L 195.168264 289.690853 
L 198.447603 289.87666 
L 201.726942 290.056002 
L 205.006281 290.229258 
L 208.28562 290.396771 
L 211.564959 290.55886 
L 214.844298 290.71582 
L 218.123636 290.867921 
L 221.402975 291.015415 
L 224.682314 291.158536 
L 227.961653 291.297501 
L 231.240992 291.432511 
L 234.520331 291.563754 
L 237.799669 291.691408 
L 241.079008 291.815635 
L 244.358347 291.93659 
L 247.637686 292.054416 
L 250.917025 292.169251 
L 254.196364 292.281219 
L 257.475702 292.390442 
L 260.755041 292.497032 
L 264.03438 292.601094 
L 267.313719 292.70273 
L 270.593058 292.802034 
L 273.872397 292.899095 
L 277.151736 292.993998 
L 280.431074 293.086823 
L 283.710413 293.177647 
L 286.989752 293.266541 
L 290.269091 293.353575 
L 293.54843 293.438813 
L 296.827769 293.522317 
L 300.107107 293.604146 
L 303.386446 293.684356 
L 306.665785 293.763002 
L 309.945124 293.840133 
L 313.224463 293.915799 
L 316.503802 293.990046 
L 319.78314 294.062919 
L 323.062479 294.13446 
L 326.341818 294.204709 
L 329.621157 294.273707 
L 332.900496 294.341489 
L 336.179835 294.408092 
L 339.459174 294.473551 
L 342.738512 294.537897 
L 346.017851 294.601163 
L 349.29719 294.663378 
L 352.576529 294.724572 
L 355.855868 294.784774 
L 359.135207 294.844008 
L 362.414545 294.902303 
L 365.693884 294.959682 
L 368.973223 295.01617 
L 372.252562 295.07179 
L 375.531901 295.126563 
L 378.81124 295.180512 
L 382.090579 295.233657 
L 385.369917 295.286018 
L 388.649256 295.337615 
L 391.928595 295.388465 
L 395.207934 295.438588 
L 398.487273 295.488 
" style="fill:none;stroke:#1f77b4;stroke-linecap:square;stroke-width:1.5;"/>
   </g>
   <g id="line2d_16">
    <path clip-path="url(#p1ef5d8eb03)" d="M 73.832727 124.626921 
L 77.112066 203.196525 
L 80.391405 223.719342 
L 83.670744 229.548308 
L 86.950083 215.947388 
L 90.229421 232.341355 
L 93.50876 241.813424 
L 96.788099 239.506125 
L 100.067438 254.928598 
L 103.346777 242.420608 
L 106.626116 246.670896 
L 109.905455 244.363597 
L 113.184793 254.564287 
L 116.464132 254.199977 
L 119.743471 254.928598 
L 123.02281 246.185149 
L 126.302149 241.813424 
L 129.581488 254.07854 
L 132.860826 259.907506 
L 136.140165 261.486184 
L 139.419504 254.07854 
L 142.698843 260.271816 
L 145.978182 254.685724 
L 149.257521 264.036357 
L 152.53686 261.121874 
L 155.816198 266.58653 
L 159.095537 265.250725 
L 162.374876 266.100782 
L 165.654215 267.558024 
L 168.933554 265.007851 
L 172.212893 264.764978 
L 175.492231 266.829403 
L 178.77157 265.736472 
L 182.050909 266.95084 
L 185.330248 269.501013 
L 188.609587 271.929748 
L 191.888926 271.929748 
L 195.168264 269.501013 
L 198.447603 270.593944 
L 201.726942 272.779806 
L 205.006281 271.929748 
L 208.28562 274.115611 
L 211.564959 273.265553 
L 214.844298 273.38699 
L 218.123636 271.929748 
L 221.402975 274.965668 
L 224.682314 271.201128 
L 227.961653 273.629863 
L 231.240992 274.722795 
L 234.520331 273.508427 
L 237.799669 274.115611 
L 241.079008 275.329979 
L 244.358347 275.815726 
L 247.637686 275.329979 
L 250.917025 274.115611 
L 254.196364 274.965668 
L 257.475702 277.030094 
L 260.755041 277.272967 
L 264.03438 275.329979 
L 267.313719 278.001588 
L 270.593058 275.694289 
L 273.872397 277.515841 
L 277.151736 278.244462 
L 280.431074 276.301473 
L 283.710413 280.308887 
L 286.989752 279.337393 
L 290.269091 277.515841 
L 293.54843 279.701703 
L 296.827769 278.487335 
L 300.107107 278.608772 
L 303.386446 278.365898 
L 306.665785 280.066013 
L 309.945124 279.580266 
L 313.224463 279.701703 
L 316.503802 280.308887 
L 319.78314 279.458829 
L 323.062479 280.308887 
L 326.341818 279.82314 
L 329.621157 281.280381 
L 332.900496 280.673197 
L 336.179835 279.701703 
L 339.459174 279.701703 
L 342.738512 280.794634 
L 346.017851 280.430324 
L 349.29719 281.037508 
L 352.576529 280.916071 
L 355.855868 281.523255 
L 359.135207 281.766128 
L 362.414545 282.251876 
L 365.693884 282.251876 
L 368.973223 281.523255 
L 372.252562 282.616186 
L 375.531901 282.737623 
L 378.81124 282.980496 
L 382.090579 282.85906 
L 385.369917 283.22337 
L 388.649256 282.737623 
L 391.928595 283.344807 
L 395.207934 283.344807 
L 398.487273 283.344807 
" style="fill:none;stroke:#ff7f0e;stroke-linecap:square;stroke-width:1.5;"/>
   </g>
   <g id="patch_3">
    <path d="M 57.6 307.584 
L 57.6 41.472 
" style="fill:none;stroke:#000000;stroke-linecap:square;stroke-linejoin:miter;stroke-width:0.8;"/>
   </g>
   <g id="patch_4">
    <path d="M 414.72 307.584 
L 414.72 41.472 
" style="fill:none;stroke:#000000;stroke-linecap:square;stroke-linejoin:miter;stroke-width:0.8;"/>
   </g>
   <g id="patch_5">
    <path d="M 57.6 307.584 
L 414.72 307.584 
" style="fill:none;stroke:#000000;stroke-linecap:square;stroke-linejoin:miter;stroke-width:0.8;"/>
   </g>
   <g id="patch_6">
    <path d="M 57.6 41.472 
L 414.72 41.472 
" style="fill:none;stroke:#000000;stroke-linecap:square;stroke-linejoin:miter;stroke-width:0.8;"/>
   </g>
   <g id="text_17">
    <text style="font-family:DejaVu Sans;font-size:12px;font-style:normal;font-weight:normal;text-anchor:middle;" transform="rotate(-0, 236.16, 35.472)" x="236.16" y="35.472">Coin Flips for pow(x,4/5)</text>
   </g>
   <g id="legend_1">
    <g id="patch_7">
     <path d="M 226.915312 78.82825 
L 407.72 78.82825 
Q 409.72 78.82825 409.72 76.82825 
L 409.72 48.472 
Q 409.72 46.472 407.72 46.472 
L 226.915312 46.472 
Q 224.915312 46.472 224.915312 48.472 
L 224.915312 76.82825 
Q 224.915312 78.82825 226.915312 78.82825 
z
" style="fill:#ffffff;opacity:0.8;stroke:#cccccc;stroke-linejoin:miter;"/>
    </g>
    <g id="line2d_17">
     <path d="M 228.915312 54.570437 
L 248.915312 54.570437 
" style="fill:none;stroke:#1f77b4;stroke-linecap:square;stroke-width:1.5;"/>
    </g>
    <g id="line2d_18"/>
    <g id="text_18">
     <text style="font-family:DejaVu Sans;font-size:10px;font-style:normal;font-weight:normal;text-anchor:start;" transform="rotate(-0, 256.915313, 58.070437)" x="256.915313" y="58.070437">Coin Flip Lower Bound</text>
    </g>
    <g id="line2d_19">
     <path d="M 228.915312 69.248562 
L 248.915312 69.248562 
" style="fill:none;stroke:#ff7f0e;stroke-linecap:square;stroke-width:1.5;"/>
    </g>
    <g id="line2d_20"/>
    <g id="text_19">
     <text style="font-family:DejaVu Sans;font-size:10px;font-style:normal;font-weight:normal;text-anchor:start;" transform="rotate(-0, 256.915313, 72.748562)" x="256.915313" y="72.748562">Avg. Coins Flipped pow(x,4/5)</text>
    </g>
   </g>
  </g>
 </g>
 <defs>
  <clipPath id="p1ef5d8eb03">
   <rect height="266.112" width="357.12" x="57.6" y="41.472"/>
  </clipPath>
 </defs>
</svg>

<svg height="460.8" viewBox="0 0 460.8 345.6" width="614.4" xmlns="http://www.w3.org/2000/svg" xmlns:xlink="http://www.w3.org/1999/xlink"><defs><style>*{stroke-linecap:butt;stroke-linejoin:round}</style></defs><g id="figure_1"><path d="M0 345.6h460.8V0H0z" fill="#fff" id="patch_1"/><g id="axes_1"><path d="M57.6 307.584h357.12V41.472H57.6z" fill="#fff" id="patch_2"/><g id="matplotlib.axis_1"><g id="xtick_1"><g id="line2d_1"><defs><path d="M0 0v3.5" id="m9cd3843a28" stroke="#000" stroke-width=".8"/></defs><use x="73.8" xlink:href="#m9cd3843a28" y="307.584" stroke="#000" stroke-width=".8"/></g><text x="73.8" y="322.182" font-family="DejaVu Sans" font-size="10" font-weight="400" text-anchor="middle" id="text_1">0.0</text></g><g id="xtick_2"><use x="138.744" xlink:href="#m9cd3843a28" y="307.584" stroke="#000" stroke-width=".8" id="line2d_2"/><text x="138.744" y="322.182" font-family="DejaVu Sans" font-size="10" font-weight="400" text-anchor="middle" id="text_2">0.2</text></g><g id="xtick_3"><use x="203.688" xlink:href="#m9cd3843a28" y="307.584" stroke="#000" stroke-width=".8" id="line2d_3"/><text x="203.688" y="322.182" font-family="DejaVu Sans" font-size="10" font-weight="400" text-anchor="middle" id="text_3">0.4</text></g><g id="xtick_4"><use x="268.632" xlink:href="#m9cd3843a28" y="307.584" stroke="#000" stroke-width=".8" id="line2d_4"/><text x="268.632" y="322.182" font-family="DejaVu Sans" font-size="10" font-weight="400" text-anchor="middle" id="text_4">0.6</text></g><g id="xtick_5"><use x="333.576" xlink:href="#m9cd3843a28" y="307.584" stroke="#000" stroke-width=".8" id="line2d_5"/><text x="333.576" y="322.182" font-family="DejaVu Sans" font-size="10" font-weight="400" text-anchor="middle" id="text_5">0.8</text></g><g id="xtick_6"><use x="398.52" xlink:href="#m9cd3843a28" y="307.584" stroke="#000" stroke-width=".8" id="line2d_6"/><text x="398.52" y="322.182" font-family="DejaVu Sans" font-size="10" font-weight="400" text-anchor="middle" id="text_6">1.0</text></g><text x="236.16" y="335.861" font-family="DejaVu Sans" font-size="10" font-weight="400" text-anchor="middle" id="text_7">Input Coin&apos;s Heads Probability (λ)</text></g><g id="matplotlib.axis_2"><g id="ytick_1"><g id="line2d_7"><defs><path d="M0 0h-3.5" id="m87f1dc8d5e" stroke="#000" stroke-width=".8"/></defs><use x="57.6" xlink:href="#m87f1dc8d5e" y="283.345" stroke="#000" stroke-width=".8"/></g><text x="50.6" y="287.144" font-family="DejaVu Sans" font-size="10" font-weight="400" text-anchor="end" id="text_8">1.0</text></g><g id="ytick_2"><use x="57.6" xlink:href="#m87f1dc8d5e" y="252.986" stroke="#000" stroke-width=".8" id="line2d_8"/><text x="50.6" y="256.785" font-family="DejaVu Sans" font-size="10" font-weight="400" text-anchor="end" id="text_9">1.5</text></g><g id="ytick_3"><use x="57.6" xlink:href="#m87f1dc8d5e" y="222.626" stroke="#000" stroke-width=".8" id="line2d_9"/><text x="50.6" y="226.426" font-family="DejaVu Sans" font-size="10" font-weight="400" text-anchor="end" id="text_10">2.0</text></g><g id="ytick_4"><use x="57.6" xlink:href="#m87f1dc8d5e" y="192.267" stroke="#000" stroke-width=".8" id="line2d_10"/><text x="50.6" y="196.066" font-family="DejaVu Sans" font-size="10" font-weight="400" text-anchor="end" id="text_11">2.5</text></g><g id="ytick_5"><use x="57.6" xlink:href="#m87f1dc8d5e" y="161.908" stroke="#000" stroke-width=".8" id="line2d_11"/><text x="50.6" y="165.707" font-family="DejaVu Sans" font-size="10" font-weight="400" text-anchor="end" id="text_12">3.0</text></g><g id="ytick_6"><use x="57.6" xlink:href="#m87f1dc8d5e" y="131.549" stroke="#000" stroke-width=".8" id="line2d_12"/><text x="50.6" y="135.348" font-family="DejaVu Sans" font-size="10" font-weight="400" text-anchor="end" id="text_13">3.5</text></g><g id="ytick_7"><use x="57.6" xlink:href="#m87f1dc8d5e" y="101.19" stroke="#000" stroke-width=".8" id="line2d_13"/><text x="50.6" y="104.989" font-family="DejaVu Sans" font-size="10" font-weight="400" text-anchor="end" id="text_14">4.0</text></g><g id="ytick_8"><use x="57.6" xlink:href="#m87f1dc8d5e" y="70.83" stroke="#000" stroke-width=".8" id="line2d_14"/><text x="50.6" y="74.63" font-family="DejaVu Sans" font-size="10" font-weight="400" text-anchor="end" id="text_15">4.5</text></g><text transform="rotate(-90 28.617 174.528)" x="28.617" y="174.528" font-family="DejaVu Sans" font-size="10" font-weight="400" text-anchor="middle" id="text_16">Coin Flips Needed</text></g><path clip-path="url(#p1ef5d8eb03)" d="M73.833 53.568l3.28 191.739 3.278 11.908 3.28 6.139 3.28 4.005 3.278 2.915 3.28 2.26 3.28 1.828 3.278 1.523 3.28 1.298 3.28 1.125 3.278.99 3.28.88 3.28.79 3.278.716 3.28.652 3.28.598 3.278.55 3.28.51 3.28.475 3.279.443 3.279.415 3.28.39 3.279.366 3.279.347 3.28.327 3.279.311 3.279.296 3.28.281 3.279.268 3.279.256 3.28.245 3.279.235 3.279.225 3.28.216 3.279.208 3.279.2 3.28.193 3.279.186 3.279.179 3.28.173 3.279.168 3.279.162 3.28.157 3.279.152 3.279.147 3.28.144 3.279.139 3.279.135 3.28.13 3.279.128 3.279.125 3.28.12 3.279.118 3.279.115 3.28.112 3.279.11 3.279.106 3.28.104 3.279.102 3.28.099 3.278.097 3.28.095 3.28.093 3.278.09 3.28.09 3.28.087 3.278.085 3.28.083 3.28.082 3.278.08 3.28.079 3.28.077 3.278.076 3.28.074 3.28.073 3.278.071 3.28.07 3.28.07 3.278.067 3.28.067 3.28.066 3.279.064 3.279.063 3.28.062 3.279.062 3.279.06 3.28.059 3.279.058 3.279.058 3.28.056 3.279.056 3.279.055 3.28.054 3.279.053 3.279.052 3.28.052 3.279.05 3.279.05 3.28.05" fill="none" stroke="#1f77b4" stroke-linecap="square" stroke-width="1.5" id="line2d_15"/><path clip-path="url(#p1ef5d8eb03)" d="M73.833 124.627l3.28 78.57 3.278 20.522 3.28 5.83 3.28-13.602 3.278 16.394 3.28 9.472 3.28-2.307 3.278 15.423 3.28-12.508 3.28 4.25 3.278-2.307 3.28 10.2 3.28-.364 3.278.729 3.28-8.744 3.28-4.372 3.278 12.266 3.28 5.829 3.28 1.578 3.279-7.407 3.279 6.193 3.28-5.586 3.279 9.35 3.279-2.914 3.28 5.465 3.279-1.336 3.279.85 3.28 1.457 3.279-2.55 3.279-.243 3.28 2.064 3.279-1.093 3.279 1.215 3.28 2.55 3.279 2.429h3.279l3.28-2.429 3.279 1.093 3.279 2.186 3.28-.85 3.279 2.186 3.279-.85 3.28.121 3.279-1.457 3.279 3.036 3.28-3.765 3.279 2.429 3.279 1.093 3.28-1.215 3.279.608 3.279 1.214 3.28.486 3.279-.486 3.279-1.214 3.28.85 3.279 2.064 3.279.243 3.28-1.943 3.279 2.672 3.28-2.308 3.278 1.822 3.28.728 3.28-1.943 3.278 4.008 3.28-.972 3.28-1.821 3.278 2.186 3.28-1.215 3.28.122 3.278-.243 3.28 1.7 3.28-.486 3.278.122 3.28.607 3.28-.85 3.278.85 3.28-.486 3.28 1.457 3.278-.607 3.28-.971h3.28l3.279 1.093 3.279-.365 3.28.608 3.279-.122 3.279.607 3.28.243 3.279.486h3.279l3.28-.729 3.279 1.093 3.279.122 3.28.242 3.279-.12 3.279.363 3.28-.485 3.279.607H398.488" fill="none" stroke="#ff7f0e" stroke-linecap="square" stroke-width="1.5" id="line2d_16"/><path d="M57.6 307.584V41.472" fill="none" stroke="#000" stroke-linecap="square" stroke-width=".8" id="patch_3"/><path d="M414.72 307.584V41.472" fill="none" stroke="#000" stroke-linecap="square" stroke-width=".8" id="patch_4"/><path d="M57.6 307.584h357.12" fill="none" stroke="#000" stroke-linecap="square" stroke-width=".8" id="patch_5"/><path d="M57.6 41.472h357.12" fill="none" stroke="#000" stroke-linecap="square" stroke-width=".8" id="patch_6"/><text x="236.16" y="35.472" font-family="DejaVu Sans" font-size="12" font-weight="400" text-anchor="middle" id="text_17">Coin Flips for pow(x,4/5)</text><g id="legend_1"><path d="M226.915 78.828H407.72q2 0 2-2V48.472q0-2-2-2H226.915q-2 0-2 2v28.356q0 2 2 2z" fill="#fff" opacity=".8" stroke="#ccc" id="patch_7"/><path d="M228.915 54.57h20" fill="none" stroke="#1f77b4" stroke-linecap="square" stroke-width="1.5" id="line2d_17"/><text x="256.915" y="58.07" font-family="DejaVu Sans" font-size="10" font-weight="400" id="text_18">Coin Flip Lower Bound</text><path d="M228.915 69.249h20" fill="none" stroke="#ff7f0e" stroke-linecap="square" stroke-width="1.5" id="line2d_19"/><text x="256.915" y="72.749" font-family="DejaVu Sans" font-size="10" font-weight="400" id="text_19">Avg. Coins Flipped pow(x,4/5)</text></g></g></g><defs><clipPath id="p1ef5d8eb03"><path d="M57.6 41.472h357.12v266.112H57.6z"/></clipPath></defs></svg>
